assets/icons/few-clouds-night-filled.svg

<?xml version="1.0" encoding="UTF-8" standalone="no"?>
<svg
   viewBox="0 0 24 24"
   height="24"
   width="24"
   version="1.1"
   id="svg4"
   sodipodi:docname="few-clouds-night-filled.svg"
   inkscape:version="1.2 (1:1.2.1+202207142221+cd75a1ee6d)"
   xmlns:inkscape="http://www.inkscape.org/namespaces/inkscape"
   xmlns:sodipodi="http://sodipodi.sourceforge.net/DTD/sodipodi-0.dtd"
   xmlns="http://www.w3.org/2000/svg"
   xmlns:svg="http://www.w3.org/2000/svg">
  <defs
     id="defs8" />
  <sodipodi:namedview
     id="namedview6"
     pagecolor="#ffffff"
     bordercolor="#666666"
     borderopacity="1.0"
     inkscape:pageshadow="2"
     inkscape:pageopacity="0.0"
     inkscape:pagecheckerboard="0"
     showgrid="true"
     inkscape:snap-page="true"
     inkscape:zoom="28"
     inkscape:cx="11.928571"
     inkscape:cy="11.107143"
     inkscape:window-width="1920"
     inkscape:window-height="1043"
     inkscape:window-x="0"
     inkscape:window-y="0"
     inkscape:window-maximized="1"
     inkscape:current-layer="svg4"
     inkscape:showpageshadow="2"
     inkscape:deskcolor="#d1d1d1">
    <inkscape:grid
       type="xygrid"
       id="grid6" />
  </sodipodi:namedview>
  <path
     id="path352"
     style="fill:#808080;fill-opacity:1;fill-rule:evenodd;stroke-width:0.5;stroke-linecap:square;stroke-linejoin:round"
     d="M 16.003906 12.949219 C 14.181674 12.953219 12.592447 14.188293 12.138672 15.953125 C 12.093782 15.950825 12.048852 15.949519 12.003906 15.949219 C 10.347054 15.949219 9.0039062 17.292366 9.0039062 18.949219 C 9.0039062 20.606071 10.347054 21.949219 12.003906 21.949219 L 19.503906 21.949219 C 20.884617 21.949219 22.003906 20.829929 22.003906 19.449219 C 22.0034 18.260143 21.16543 17.235958 20 17 C 20.0014 16.98308 20.002706 16.966149 20.003906 16.949219 C 20.003906 14.740082 18.213043 12.949219 16.003906 12.949219 z " />
  <path
     id="path291"
     style="opacity:1;fill:#808080;fill-rule:evenodd;stroke:none;stroke-width:2;stroke-linecap:round;stroke-linejoin:round"
     d="M 12.707031 2.2929688 A 7.5 7.5 0 0 1 14 6.5 A 7.5 7.5 0 0 1 6.5 14 A 7.5 7.5 0 0 1 2.3007812 12.701172 A 8.5 8.5 0 0 0 8.0195312 18.623047 C 8.1744537 16.773329 9.6325835 15.32473 11.457031 15.060547 C 12.222424 13.22647 13.970863 11.953719 16.001953 11.949219 A 1.0001 1.0001 0 0 0 16.003906 11.949219 C 16.999352 11.949219 17.917896 12.248385 18.685547 12.759766 A 8.5 8.5 0 0 0 19 10.5 A 8.5 8.5 0 0 0 12.707031 2.2929688 z " />
</svg>

<svg height="24" width="24" xmlns="http://www.w3.org/2000/svg"><path style="fill:gray;fill-opacity:1;stroke-width:.5;stroke-linecap:square;stroke-linejoin:round" d="M16.004 12.95a4 4 0 0 0-3.865 3.003 3 3 0 1 0-.135 5.996h7.5A2.5 2.5 0 0 0 20 17a4.32 4.32 0 0 0 .004-.05 4 4 0 0 0-4-4z"/><path style="opacity:1;fill:gray;stroke:none;stroke-width:2;stroke-linecap:round;stroke-linejoin:round" d="M12.707 2.293A7.5 7.5 0 0 1 14 6.5 7.5 7.5 0 0 1 6.5 14a7.5 7.5 0 0 1-4.2-1.299 8.5 8.5 0 0 0 5.72 5.922c.154-1.85 1.613-3.298 3.437-3.562.765-1.835 2.514-3.107 4.545-3.112a1 1 0 0 0 .002 0c.995 0 1.914.3 2.682.81A8.5 8.5 0 0 0 19 10.5a8.5 8.5 0 0 0-6.293-8.207z"/></svg>
